icons/src/svg/notification.svg

<svg width="32" height="32" viewBox="0 0 32 32" fill="none" xmlns="http://www.w3.org/2000/svg">
<path fill-rule="evenodd" clip-rule="evenodd" d="M16.9764 2.96484C16.9764 2.41256 16.5287 1.96484 15.9764 1.96484C15.4241 1.96484 14.9764 2.41256 14.9764 2.96484V4.0243C9.9342 4.53647 5.99951 8.79481 5.99951 13.9721V14.0831C5.98638 14.1478 5.97949 14.2147 5.97949 14.2832V24.0002L5.97954 24.0098H4.98242C4.43014 24.0098 3.98242 24.4575 3.98242 25.0098C3.98242 25.562 4.43014 26.0098 4.98242 26.0098L27.0174 26.0098C27.5697 26.0098 28.0174 25.562 28.0174 25.0098C28.0174 24.4575 27.5697 24.0098 27.0174 24.0098H26.0151V13.8379C26.0151 13.7651 26.0074 13.6942 25.9926 13.6259C25.8213 8.5907 21.9273 4.50009 16.9764 4.01982V2.96484ZM24.0151 24.0098L7.97945 24.0098L7.97949 24.0002V16.3533H7.99951V13.9721C7.99951 9.55415 11.581 5.97266 15.999 5.97266C20.417 5.97266 23.9985 9.55415 23.9985 13.9721V16.284H24.0151V24.0098Z" fill="#0D0F13"/>
<path d="M13.9248 27.9609C13.3725 27.9609 12.9248 28.4087 12.9248 28.9609C12.9248 29.5132 13.3725 29.9609 13.9248 29.9609H18.0567C18.609 29.9609 19.0567 29.5132 19.0567 28.9609C19.0567 28.4087 18.609 27.9609 18.0567 27.9609H13.9248Z" fill="#0D0F13"/>
</svg>

<svg fill="none" xmlns="http://www.w3.org/2000/svg" viewBox="0 0 32 32">
  <path fill-rule="evenodd" clip-rule="evenodd" d="M16.977 2.964a1 1 0 1 0-2 0v1.06c-5.043.511-8.978 4.77-8.978 9.947v.112c-.013.064-.02.13-.02.199v9.727h-.996a1 1 0 1 0 0 2h22.035a1 1 0 0 0 0-2h-1.003V13.838c0-.073-.008-.145-.023-.214-.171-5.035-4.065-9.125-9.015-9.605V2.964Zm7.038 21.045H7.98v-7.657H8v-2.381a8 8 0 1 1 15.998 0v2.312h.017v7.726Zm-10.09 3.952a1 1 0 1 0 0 2h4.132a1 1 0 1 0 0-2h-4.132Z" fill="currentColor"/>
</svg>
